X:29
T:1) Seidener Zwirn - The Silken Twine
S:Cathy Goss
O:Germany
N:VVMM
M:3/4
I:speed 420
A:Bavaria
K:C
M:3/4
G3F EF|G4c2|\
M:2/4
B4d4|c4e4|\
M:3/4
G3F EF|G4c2|\
M:2/4
B4d4|c8:|
|:\
M:3/4
A2 fe f2|G2 ed e2|\
M:2/4
B4d4|c4 e4|\
M:3/4
A2fef2|G2ede2|\
M:2/4
B4d4|c8:|
